!!!OTL: Feinslieb im Grab (3-75), S. 209
!!!id: P1048
**kern
*clefG2
*k[b-e-a-d-]
*A-:
{8c
8e-
=1
4a-
4a-
4e-
4a-
=2
4.a-
8g
4a-}
=3
{4cc
=4
4.b-
8g
4g
4a-
=5
2b-}
4r
=6
{8b-
8cc
=7
4.dd-
8cc
4b-
8ee-
8dd-
=8
4.cc
8b-
8a-}
=9
{8e-
8e-
8dd-
=10
2cc
2b-
=11
2a-}
4r
=12
{8b-
8cc
=13
4.dd-
8cc
4b-
8ee-
8dd-
=14
4.cc
4b-}
=15
{8e-
8e-
8dd-
=16
2cc
2b-
=17
2a-}
4r
==
*-
!!!minrhy: 8
!!!meters: 4/4 ]  ZZ[6
!!!cut: Feinslieb im Grab (3-75), S. 209
!!!reg: Lothringen
!!!trd: PINCK, Louis: Verklingende Weisen, Bd3, Metz 1933
!!!rhy1: XX  X_X_X_X_  X_.XX_
!!!rhy2: X_  X_.XX_X_  X__0_
!!!key: P1048  08 Ab 4/4 ]  ZZ[6
!!!mod: SECHSTONSKALA DUR ?]  AMBITUS[10b
!!!kad: 121121
!!!akz: 1-511_2-72_4231_321_4232_321_
!!!fot: 'a__b__c__d__cw_d__
!!!for: 'a__b__c__d__cw_d__
!!!fok: '/__Vd_^d_^a_^__^a_
!! PHRAS[AUFTAKTIG]
!!!fkt: Liebeskummer, Tod
!! LOTH VKL
!! PR[6] 2K[13] 2G[18] 3K[8] 3G[0] 4A[0] 4Ü[0] 5A[1] 6K[0] 6G[0]
!! 7K[0] 7G[0] 8A[0] MEHR[0] SI[40] ABS[72] SR[31] SP[10]
!! ST[16] 2k[24] 2g[29] 3k[0] 3g[1] 4d[0] 4ü[0] 5d[0] 6k[0] 6g[0]
!! 7k[0] 7g[0] 8d[0] mehr[0] si[54] dm[-14] sr[53] sp[1]
!! 1F[3] 2F[56] 3F[13] 4F[5] LF[0] 2P[3] 3P[1] 4P[0] TRI[0] DF[7] AB[77]
!! TF[0] U3K[0] U3[0] U4[0] U4Ü[0] U5[0] U6K[0] U6[0] U7K[0] U7[4]
!! N1[16] N2K[0] N2[21] N3K[26] N3[0] N4[15] N4Ü[0] N5[15] N6K[1] N6[0]
!!!n7k: 1] N7[0] O1[0] O2K[0] O2[0] O3K[0] O3[0] HÖ[0
